groups/sulfur/dithiocarboxylic_acid.svg

<?xml version='1.0' encoding='iso-8859-1'?>
<svg version='1.1' baseProfile='full'
              xmlns='http://www.w3.org/2000/svg'
                      xmlns:rdkit='http://www.rdkit.org/xml'
                      xmlns:xlink='http://www.w3.org/1999/xlink'
                  xml:space='preserve'
width='256px' height='256px' viewBox='0 0 256 256'>
<!-- END OF HEADER -->
<rect style='opacity:1.0;fill:#FFFFFF;stroke:none' width='256.0' height='256.0' x='0.0' y='0.0'> </rect>
<path class='bond-0 atom-0 atom-1' d='M 41.9,181.6 L 119.9,136.9' style='fill:none;fill-rule:evenodd;stroke:#000000;stroke-width:2.0px;stroke-linecap:butt;stroke-linejoin:miter;stroke-opacity:1' />
<path class='bond-1 atom-1 atom-2' d='M 126.7,140.8 L 126.9,69.9' style='fill:none;fill-rule:evenodd;stroke:#000000;stroke-width:2.0px;stroke-linecap:butt;stroke-linejoin:miter;stroke-opacity:1' />
<path class='bond-1 atom-1 atom-2' d='M 113.2,140.8 L 113.4,69.9' style='fill:none;fill-rule:evenodd;stroke:#000000;stroke-width:2.0px;stroke-linecap:butt;stroke-linejoin:miter;stroke-opacity:1' />
<path class='bond-2 atom-1 atom-3' d='M 119.9,136.9 L 183.6,174.0' style='fill:none;fill-rule:evenodd;stroke:#000000;stroke-width:2.0px;stroke-linecap:butt;stroke-linejoin:miter;stroke-opacity:1' />
<path d='M 116.0,139.2 L 119.9,136.9 L 123.1,138.8' style='fill:none;stroke:#000000;stroke-width:2.0px;stroke-linecap:butt;stroke-linejoin:miter;stroke-miterlimit:10;stroke-opacity:1;' />
<path class='atom-1' d='M64.208,220.647 C67.1357,218.971 64.9009,215.068 61.9732,216.744 C59.0455,218.42 56.8107,214.516 59.7384,212.84 C62.6661,211.164 60.4312,207.26 57.5036,208.936 C54.5759,210.612 52.341,206.709 55.2687,205.033 C58.1964,203.356 55.9616,199.453 53.0339,201.129 C50.1062,202.805 47.8714,198.901 50.7991,197.225 C53.7268,195.549 51.4919,191.645 48.5643,193.321 C45.6366,194.997 43.4018,191.094 46.3294,189.418 C49.2571,187.742 47.0223,183.838 44.0946,185.514 C41.1669,187.19 38.9321,183.286 41.8598,181.61 C44.7875,179.934 42.5527,176.03 39.625,177.706 C36.6973,179.382 34.4625,175.479 37.3901,173.803 C40.3178,172.127 38.083,168.223 35.1553,169.899 C32.2276,171.575 29.9928,167.671 32.9205,165.995 C35.8482,164.319 33.6134,160.415 30.6857,162.091 C27.758,163.767 25.5232,159.864 28.4509,158.188 C31.3785,156.512 29.1437,152.608 26.216,154.284 C23.2883,155.96 21.0535,152.056 23.9812,150.38 C26.9089,148.704 24.6741,144.8 21.7464,146.476 C18.8187,148.152 16.5839,144.249 19.5116,142.573' style='fill:none;stroke:#7F7F7F;stroke-width:2.0px;stroke-linecap:butt;stroke-linejoin:miter;stroke-opacity:1' />
<text x='108.3' y='67.0' class='atom-2' style='font-size:40px;font-style:normal;font-weight:normal;fill-opacity:1;stroke:none;font-family:sans-serif;text-anchor:start;fill:#000000' >S</text>
<text x='186.6' y='202.2' class='atom-3' style='font-size:40px;font-style:normal;font-weight:normal;fill-opacity:1;stroke:none;font-family:sans-serif;text-anchor:start;fill:#000000' >S</text>
<text x='212.1' y='202.2' class='atom-3' style='font-size:40px;font-style:normal;font-weight:normal;fill-opacity:1;stroke:none;font-family:sans-serif;text-anchor:start;fill:#000000' >H</text>
</svg>

<svg height="256" viewBox="0 0 256 256" width="256" xmlns="http://www.w3.org/2000/svg"><path d="m0 0h256v256h-256z" fill="#fff"/><g fill="none" stroke-width="2"><path d="m41.9 181.6 78-44.7" stroke="#000"/><path d="m126.7 140.8.2-70.9" stroke="#000"/><path d="m113.2 140.8.2-70.9" stroke="#000"/><path d="m119.9 136.9 63.7 37.1" stroke="#000"/><path d="m116 139.2 3.9-2.3 3.2 1.9" stroke="#000" stroke-miterlimit="10"/><path d="m64.208 220.647c2.928-1.676.693-5.579-2.235-3.903-2.927 1.676-5.162-2.228-2.235-3.904 2.928-1.676.693-5.58-2.234-3.904-2.928 1.676-5.163-2.227-2.235-3.903 2.927-1.677.693-5.58-2.235-3.904s-5.163-2.228-2.235-3.904.693-5.58-2.235-3.904c-2.927 1.676-5.162-2.227-2.235-3.903 2.928-1.676.693-5.58-2.234-3.904-2.928 1.676-5.163-2.228-2.235-3.904s.693-5.58-2.235-3.904-5.162-2.227-2.235-3.903c2.928-1.676.693-5.58-2.235-3.904-2.927 1.676-5.162-2.228-2.234-3.904 2.927-1.676.692-5.58-2.235-3.904-2.928 1.676-5.163-2.227-2.235-3.903s.693-5.58-2.235-3.904-5.162-2.228-2.235-3.904c2.928-1.676.693-5.58-2.235-3.904-2.927 1.676-5.162-2.227-2.234-3.903" stroke="#7f7f7f"/></g><text font-family="sans-serif" font-size="40" x="108.3" y="67">S</text><text font-family="sans-serif" font-size="40" x="186.6" y="202.2">S</text><text font-family="sans-serif" font-size="40" x="212.1" y="202.2">H</text></svg>
